!!!OTL: 1991. Morgenlied.
!!!ODT: 1646
!!!ARE: Europa, Mitteleuropa, Deutschland
!!!SCT: E1991
!!!TXL: @@DE
!!!YEM: Copyright 1995, estate of Helmut Schaffrath.
**kern	**text
*ICvox	*
*M4/4	*
*met(c)	*
*k[f#]	*
*G:	*
=1	=1
!LO:TX:a:t=Mel. 1646	!
{4g	Gott
4a	des
4b	Him-
4dd	-mels
=2	=2
4g	und
4f#	der
4e	Er-
4d;}	-den,
=3	=3
{4e	Va-
4f#	-ter
4g	Sohn
4a	und
=4	=4
4b/	heil-
4a	-ger
2g;}	Geiſt,
=5	=5
{4g	der
4a	es
4b	Tag
4dd	und
=6	=6
4g	Nacht
4f#	läßt
4e	wer-
4d;}	-den,
=7	=7
{4e	Sonn'
4f#	und
4g	Mond
4a	uns
=8	=8
4b/	ſchei-
4a	-nen
2g;}	heißt,
=9	=9
{4b	deſ-
4b	-ſen
4a	ſtar-
4b	-ke
=10	=10
4cc	Hand
4b	die
2a;}	Welt
=11	=11
{4e	und
4f#	was
4g	drin-
4a	-nen
=12	=12
4b/	iſt,
4a	er-
2g}	-hält.
==	==
!!!AGN: geistlich, Dank -, Lob - Lied; Morgen - Lied
!!!ONB: ESAC (Essen Associative Code) Database: ERK3
!!!AMT: simple quadruple
!!!AIN: vox
!!!EED: Helmut Schaffrath
!!!EEV: 1.0
!!!GTL: Geistliche Lieder. 2. Gottesglaube und Gottesverehrung in Liedern: Bitt-, Lob-, Dank- und Trostlieder, nebst einigen Lehrgesaengen.
!!!URL-scan:
!!!ENC: Anna Maria Matuszewska
!!!EEV: 2025/10/01
*-	*-
